X:1
T:Twinkle Twinkle Little Star
M:4/4
K:C
L:1/4
Q:1/4 = 120
"Cmaj"C C "C"G G | "Fmaj"A A "Cmaj"G2 | "Fm"F F "Cmaj"E E | "Gmaj7"D D "Cmaj"C2 |
"Cmaj"G G "Fm"F F | "Cmaj"E E "Gmaj"D2 | "C"G G "Fm"F F | "Cmaj"E E "Gmaj"D2 |
"Cmaj"C C "G"G G | "Fmaj"A A "Cmaj"G2 | "Fm"F F "Cmaj"E E | "Gmaj"D D "Cmaj"C2 |
```

Input: Please compose a cheerful song. Emanate the excitement of cooking as if you are in the kitchen.
The piano music you generate with following the steps:
```abc
